images/ArCoin.svg

<svg height="250" viewBox="0 0 250 250" width="250" xmlns="http://www.w3.org/2000/svg" xmlns:xlink="http://www.w3.org/1999/xlink"><clipPath id="a"><path d="m42 50h166v150h-166zm0 0"/></clipPath><clipPath id="b"><path d="m207.707031 162.058594v12.292968c0 .601563-.484375 1.113282-1.109375 1.113282h-163.195312c-.601563 0-1.109375-.511719-1.109375-1.113282v-12.292968c0-.601563.484375-1.109375 1.109375-1.109375h163.195312c.601563 0 1.109375.484375 1.109375 1.109375zm-1.109375 23.082031h-163.195312c-.601563 0-1.109375.484375-1.109375 1.109375v12.292969c0 .601562.484375 1.109375 1.109375 1.109375h163.195312c.601563 0 1.109375-.484375 1.109375-1.109375v-12.292969c0-.625-.507812-1.109375-1.109375-1.109375zm-163.542968-33.867187h30.925781c.671875-.09375 1.226562-.507813 1.503906-1.113282 0 0 1.136719-2.984375 3.242187-7.542968 3.613282-7.800782 6.597657-12.917969 6.597657-12.917969 7.824219-14.027344 19.234375-31.179688 33.101562-36.320313 2.105469-.761718 4.304688-1.226562 6.527344-1.320312h.09375c2.222656.09375 4.445313.558594 6.527344 1.320312 13.867187 5.140625 25.277343 22.269532 33.101562 36.320313 0 0 3.007813 5.117187 6.621094 12.917969 2.105469 4.558593 3.238281 7.542968 3.238281 7.542968.28125.605469.859375 1.042969 1.507813 1.113282h30.902343c.136719 0 .253907-.046876.371094-.117188.300782-.230469.390625-.648438.207032-.996094 0 0-2.039063-5.230468-5.671876-13.214844-.996093-2.175781-2.105468-4.5625-3.378906-7.152343-8.265625-16.828125-16.851562-32.871094-28.054687-49.121094-11.273438-16.367187-28.242188-29.722656-44.886719-30.324219h-1.132812c-16.644532.601563-33.613282 13.957032-44.882813 30.324219-11.183594 16.25-19.769531 32.292969-28.058594 49.121094-1.25 2.589843-2.382812 4.953125-3.378906 7.152343-3.65625 7.984376-5.671875 13.101563-5.671875 13.101563-.207031.371094-.113281.832031.210938 1.109375.136718.070312.277343.117188.4375.117188zm0 0"/></clipPath><linearGradient id="c" gradientTransform="matrix(.231481 0 0 -.231481 0 250)" gradientUnits="userSpaceOnUse" x1="313.433502" x2="853.780579" y1="735.713074" y2="201.504395"><stop offset="0" stop-color="#fcb23a"/><stop offset="1" stop-color="#f5833d"/></linearGradient><g clip-path="url(#a)"><g clip-path="url(#b)"><path d="m40.117188 46.667969h169.652343v169.652343h-169.652343zm0 0" fill="url(#c)"/></g></g></svg>

<!-- Generator: Adobe Illustrator 23.1.1, SVG Export Plug-In . SVG Version: 6.00 Build 0)  -->
<svg xmlns="http://www.w3.org/2000/svg" xmlns:xlink="http://www.w3.org/1999/xlink" width="250px" height="250px" viewBox="0 0 250 250" version="1.1">
<defs>
<clipPath id="clip1">
  <path d="M 42 50 L 208 50 L 208 200 L 42 200 Z M 42 50 "/>
</clipPath>
<clipPath id="clip2">
  <path d="M 207.707031 162.058594 L 207.707031 174.351562 C 207.707031 174.953125 207.222656 175.464844 206.597656 175.464844 L 43.402344 175.464844 C 42.800781 175.464844 42.292969 174.953125 42.292969 174.351562 L 42.292969 162.058594 C 42.292969 161.457031 42.777344 160.949219 43.402344 160.949219 L 206.597656 160.949219 C 207.199219 160.949219 207.707031 161.433594 207.707031 162.058594 Z M 206.597656 185.140625 L 43.402344 185.140625 C 42.800781 185.140625 42.292969 185.625 42.292969 186.25 L 42.292969 198.542969 C 42.292969 199.144531 42.777344 199.652344 43.402344 199.652344 L 206.597656 199.652344 C 207.199219 199.652344 207.707031 199.167969 207.707031 198.542969 L 207.707031 186.25 C 207.707031 185.625 207.199219 185.140625 206.597656 185.140625 Z M 43.054688 151.273438 L 73.980469 151.273438 C 74.652344 151.179688 75.207031 150.765625 75.484375 150.160156 C 75.484375 150.160156 76.621094 147.175781 78.726562 142.617188 C 82.339844 134.816406 85.324219 129.699219 85.324219 129.699219 C 93.148438 115.671875 104.558594 98.519531 118.425781 93.378906 C 120.53125 92.617188 122.730469 92.152344 124.953125 92.058594 L 125.046875 92.058594 C 127.269531 92.152344 129.492188 92.617188 131.574219 93.378906 C 145.441406 98.519531 156.851562 115.648438 164.675781 129.699219 C 164.675781 129.699219 167.683594 134.816406 171.296875 142.617188 C 173.402344 147.175781 174.535156 150.160156 174.535156 150.160156 C 174.816406 150.765625 175.394531 151.203125 176.042969 151.273438 L 206.945312 151.273438 C 207.082031 151.273438 207.199219 151.226562 207.316406 151.15625 C 207.617188 150.925781 207.707031 150.507812 207.523438 150.160156 C 207.523438 150.160156 205.484375 144.929688 201.851562 136.945312 C 200.855469 134.769531 199.746094 132.382812 198.472656 129.792969 C 190.207031 112.964844 181.621094 96.921875 170.417969 80.671875 C 159.144531 64.304688 142.175781 50.949219 125.53125 50.347656 L 124.398438 50.347656 C 107.753906 50.949219 90.785156 64.304688 79.515625 80.671875 C 68.332031 96.921875 59.746094 112.964844 51.457031 129.792969 C 50.207031 132.382812 49.074219 134.746094 48.078125 136.945312 C 44.421875 144.929688 42.40625 150.046875 42.40625 150.046875 C 42.199219 150.417969 42.292969 150.878906 42.617188 151.15625 C 42.753906 151.226562 42.894531 151.273438 43.054688 151.273438 Z M 43.054688 151.273438 "/>
</clipPath>
<linearGradient id="linear0" gradientUnits="userSpaceOnUse" x1="313.433502" y1="735.713074" x2="853.780579" y2="201.504395" gradientTransform="matrix(0.231481,0,0,-0.231481,0,250)">
<stop offset="0" style="stop-color:rgb(98.823529%,69.803923%,22.745098%);stop-opacity:1;"/>
<stop offset="1" style="stop-color:rgb(96.078432%,51.372552%,23.921569%);stop-opacity:1;"/>
</linearGradient>
</defs>
<g id="surface1">
<g clip-path="url(#clip1)" clip-rule="nonzero">
<g clip-path="url(#clip2)" clip-rule="nonzero">
<path style=" stroke:none;fill-rule:nonzero;fill:url(#linear0);" d="M 40.117188 46.667969 L 209.769531 46.667969 L 209.769531 216.320312 L 40.117188 216.320312 Z M 40.117188 46.667969 "/>
</g>
</g>
</g>
</svg>
